X:1
T:James Gibb editions
T:Brightly gleams our banner - Barnby
%%score [ ( 1 2 ) ( 3 4 ) ]
L:1/8
Q:1/4=108
M:4/4
K:D
V:1 treble nm="Midi_74"
V:2 treble 
V:3 bass nm="Midi_74"
V:4 bass 
V:1
"^Thomas Joseph Potter\n(1828-73)""^Brightly gleams our banner""^Nissi (65. 65. 65. 65. 65. 65)""^Joseph Barnby\n(1838-96)" A2 A2 A2 B2 | %1
 A4 A4 | B2 B2 c2 F2 | d8 | d2 d2 c2 B2 | A2 G2 F2 B2 | B4 c4 | B8 ||[M:4/4] B2 d2 c2 B2 | B4 A4 || %10
 ^G2 B2 A2 !courtesy!^G2 | (^G4 F4) || E2 E2 F2 ^G2 | A2 c2 e2 d2 | B4 B4 | A8 || A2 A2 A2 B2 | %17
 A4 A4 | B2 B2 c2 F2 | d8 | d2 d2 c2 B2 | A2 =G2 F2 G2 | E6 F2 | D8 || G4 F4 |] %25
V:2
 D2 C2 D2 D2 | (D2 C2) D4 | D2 E2 E2 F2 | F8 | G2 G2 G2 G2 | E2 E2 D2 E2 | F6 E2 | D8 || %8
[M:4/4] D2 F2 E2 D2 | D4 (C2 E2) || D2 D2 C2 ^E2 | (^E4 F4) || B,2 E2 E2 D2 | E2 E2 C2 D2 | D4 D4 | %15
 (D2 C2 B,2 C2) || D2 C2 D2 D2 | (D2 C2) D4 | D2 E2 E2 F2 | F8 | ^G2 F2 E2 E2 | E2 C2 D2 D2 | %22
 (D2 C2 B,2) C2 | D8 || D4 D4 |] %25
V:3
 F,2 E,2 F,2 G,2 | E,4 F,4 | G,2 B,2 B,2 ^A,2 | B,8 | B,2 B,2 C2 D2 | E2 C2 A,2 B,2 | D4 ^A,4 | %7
 B,8 ||[M:4/4] ^G,2 E,2 F,2 G,2 | (^G,2 E,2) (A,2 C2) || B,2 ^G,2 ^E,2 B,2 | (B,4 A,4) || %12
 ^G,2 G,2 A,2 B,2 | A,2 =G,2 F,2 B,2 | (A,2 ^G,2) (F,2 G,2) | (A,2 E,2 =G,4) || %16
"^1 Brightly gleams our banner,\nPointing to the sky,\nWaving on Christ's soldiers\nTo their home on high.\nMarching through the desert,\nGladly thus we pray,\nStill with hearts united,\nSinging on our way.\n\nRefrain:\nBrightly gleams our banner,\nPointing to the sky,\nWaving on Christ's soldiers\nTo their home on high." F,2 E,2 F,2 G,2 | %17
 E,4 F,4 | G,2 B,2 B,2 ^A,2 | B,8 | %20
"^2 Jesus, Lord and Master,\nAt Thy sacred feet,\nHere, with hearts rejoicing\nSee Thy children meet.\nOften have we left Thee,\nOften gone astray;\nKeep us, mighty Saviour,\nIn the narrow way. [Refrain]" B,2 A,2 ^G,2 G,2 | %21
 A,2 A,2 A,2 B,2 | %22
"^3 Pattern of our childhood,\nOnce Thyself a child,\nMake our childhood holy,\nPure, and meek, and mild.\nIn the hour of danger\nWhither can we flee,\nSave to Thee, dear Saviour,\nOnly unto Thee? [Refrain]\n" E,4 G,4 | %23
 F,8 || B,4 A,4 |] %25
V:4
 D,2 A,,2 D,2 G,,2 | A,,4 D,4 | G,,2 G,2 F,2 F,2 | B,8 | E,2 E,2 E,2 D,2 | C,2 A,,2 D,2 G,2 | %6
 F,4 F,4 | B,,8 ||[M:4/4] E,2 E,2 E,2 E,2 | A,,4 A,,4 || B,,2 B,,2 C,2 C,2 | D,8 || %12
 D,2 D,2 C,2 B,,2 | C,2 B,,2 ^A,,2 B,,2 | E,4 E,4 | A,,8 || D,2 A,,2 D,2 G,,2 | A,,4 D,4 | %18
 G,,2 G,2 F,2 F,2 | B,8 | E,2 E,2 E,2 D,2 | C,2 A,,2 D,2 G,,2 | A,,4 A,,4 | D,8 || G,,4 D,4 |] %25

